X: 1111
T:Cnmirkir Daaik% Ji
% Nottingham Music Database
S:(ennky Woleen, viaa Mhil Rowe
M:6/8
K:D
m:A
|:G/2d/2|Acc GBF|AAB fed|cdB A2D|cBEc AFG|
AAc ecc|GGB BGB|def 83|dcG eec|EBd f'b|gfe fdA:G3|Adf Bcf|efe dAc|
ddb fef|eed ded|bdd B2B|Gdd dAG|ccc AGB|\
0::\>
Bfe/2d/2|fB "D"ddd fdd|dBG dec|"D"dcA d2f|"F"ffd A2c|"Em"e3 -d3::
"A"A2e e^gg|"Ab"g2g eec|"G"Bdd cBd|"G"dBA G2:|
P:B
|:c/2c/2|"G"g2g g2g|"G"bee BdB|"A7"c2e gba|\
K:D
"E7"e3 g3|
"Em"e3/2d/2ab c2a|ced cAG|"Em"DEE E2D|1[2A A2A|
"F"F2A ABc|"A"Ade "E7"d2e|"D"d3 -d2e|"D"a2f d2f|"A"feA E2A|"D"F3 A3::
"Am"e3 efg|"A"e2e ade|"D"fgf "E7"b2d|"G"dfg "G"bdd|"D7"agf "A"afe|
"D""F"fed "A7"efg|"A"gfe "A"efg|"G"dag "A"Ace|"D"d3 |


